X:1
T:Title
%%score 1 { 2 | 3 }
L:1/8
Q:1/4=80
M:4/8
K:Eb
V:1 treble nm="Grand Piano, Soprano"
V:2 bass nm="Choir Pad, Let Your Garments Be"
V:3 bass 
V:1
 E/[EF]/[EG][EG][EG] | [EA][EG] [DF]2 | [DF]/[EG]/[FA][FA][FA] | [GB] [EG]3 | %4
w: By~G.~K.~A. * * * *||||
 [EG]/[FA]/[GB][GB][GB] | [Ge][Ge] [Fd]2 | [FB]/[Gc]/[Fd][Fd][Fd] | [Ec] [DB]3 | %8
w: ||||
 [DB]/[DB]/[Ac][GB][FA] | [=EG][GB] [FA]2 | [FA]/[FA]/[GB][FA][EG] | [DF] [EG]3 | %12
w: ||||
 [EG]/[EA]/[EB]E[Ge] | [Ec][Ed] [Ec]2 | E/[EF]/[EG][FA][EG] | [DF] E3 | [GB]>[Ac] [GB]2 | %17
w: |||||
 [EG][GB] [Ge]2 | [GB]2 [Ac][EB] | [DA][EG] [DF]2- | [DF][EG]/[FA]/[EB]E | [Ge][GB][Bd][Ac]- | %22
w: |||||
 [Ac][Ac]/[Ac]/[GB][GB] | [Ac][Ad] [Ge]2- | [Ge]4- | [Ge] z z2 |] %26
w: ||||
V:2
 G,/A,/B,B,B, | CB, B,2 | B,/B,/B,B,B, | B, B,3 | B,/B,/B,EE | B,B, B,2 | B,/B,/B,B,=A, | =A, B,3 | %8
 B,/B,/B,B,B, | B,B, B,2 | B,/B,/B,B,B, | B, B,3 | B,/B,/G,G,B, | G,A, A,2 | C/C/B,B,B, | B, G,3 | %16
 E>EEE | B,[K:bass]B,B,B, | EEEB, | B,B, B,2- | B,B,/B,/G,G, | B,[K:treble]EEE- | EE/E/EE | %23
 DB, B,2- | B,4- | B, z z2 |] %26
V:3
 E,/E,/E,E,E, | E,B,, B,,2 | B,,/B,,/B,,B,,B,, | B,, E,3 | E,/E,/E,E,E, | G, z z2 | D,/E,/F,F,F, | %7
 F, B,,3 | B,,/B,,/B,,B,,B,, | B,,B,, B,,2 | B,,/B,,/B,,B,,B,, | B,, E,3 | E,/E,/E,E,E, | %13
 E,A,, A,,2 | =A,,/A,,/B,,B,,B,, | B,, E,3 | E,>E,E,E, | E,E,E,E, | E,E,A,G, | F,E, B,,2- | %20
 B,,E,/E,/E,E, | E,E,A,A,- | A,A,/A,/B,B, | B, z E,2- | E,4- | E, z z2 |] %26

